icons/file_type_light_esphome.svg

<svg xmlns="http://www.w3.org/2000/svg" viewBox="0 0 32 32"><path d="M26.54 8.146v-1.6a1.027 1.027 0 1 1 2.017 0v1.6m-5.4 0v-1.6a1.016 1.016 0 0 1 .989-1.027.989.989 0 0 1 1.027.95V8.147m-5.441 0v-1.6a1.027 1.027 0 1 1 2.017 0v1.6m-5.4 0v-1.6a1.027 1.027 0 1 1 2.017 0v1.6m-5.441 0v-1.6a1.027 1.027 0 1 1 2.017 0v1.6m-5.441 0v-1.6a1.027 1.027 0 1 1 2.055 0v1.6M28.557 23.29v1.75a1.027 1.027 0 1 1-2.017 0v-1.75m-1.37 0v1.75a1.027 1.027 0 1 1-2.017 0v-1.75m-1.408 0v1.75a1.027 1.027 0 1 1-2.017 0v-1.75m-1.37 0v1.75a1.027 1.027 0 1 1-2.017 0v-1.75m-1.446 0v1.75a1.027 1.027 0 1 1-2.017 0v-1.75m-1.37.076v1.712a1.027 1.027 0 1 1-2.017 0v-1.712" style="fill:none;stroke:#000;stroke-width:1.031628607691953px"/><path d="M29.089 8.146H9a.381.381 0 0 0-.381.381v14.459a.407.407 0 0 0 .381.342h20.089a.409.409 0 0 0 .381-.381V8.488a.409.409 0 0 0-.381-.381Z" style="fill:none;stroke:#000;stroke-width:1.031628607691953px"/><path d="M22.354 15.452v-1.9h-.684v1.218l-2.587-2.587-4.376 4.376h1.1v2.968h6.545v-2.972h1.1Z"/><path d="M8.542 22.453H2.53v-1.522h4.528v-1.446H2.53v-1.522h4.528v-1.484H2.53v-1.484h4.528v-1.446H2.53V8.983" style="fill:none;stroke:#000;stroke-linecap:round;stroke-linejoin:round;stroke-width:1.031628607691953px"/></svg>

<svg xmlns="http://www.w3.org/2000/svg" viewBox="0 0 32 32"><title>file_type_light_esphome</title><path d="M26.54,8.146v-1.6a1.027,1.027,0,1,1,2.017,0v1.6m-5.4,0v-1.6a1.016,1.016,0,0,1,.989-1.027.989.989,0,0,1,1.027.95q0,.039,0,.078v1.6m-5.441,0v-1.6a1.027,1.027,0,1,1,2.017,0v1.6m-5.4,0v-1.6a1.027,1.027,0,1,1,2.017,0v1.6m-5.441,0v-1.6a1.027,1.027,0,1,1,2.017,0v1.6m-5.441,0v-1.6a1.027,1.027,0,1,1,2.055,0v1.6M28.557,23.29v1.75a1.027,1.027,0,1,1-2.017,0V23.29m-1.37,0v1.75a1.027,1.027,0,1,1-2.017,0V23.29m-1.408,0v1.75a1.027,1.027,0,1,1-2.017,0V23.29m-1.37,0v1.75a1.027,1.027,0,1,1-2.017,0V23.29m-1.446,0v1.75a1.027,1.027,0,1,1-2.017,0V23.29m-1.37.076v1.712a1.027,1.027,0,1,1-2.017,0V23.366" style="fill:none;stroke:#000;stroke-width:1.031628607691953px"/><path d="M29.089,8.146H9a.381.381,0,0,0-.381.381V22.986A.407.407,0,0,0,9,23.328H29.089a.409.409,0,0,0,.381-.381V8.488a.409.409,0,0,0-.381-.381Z" style="fill:none;stroke:#000;stroke-width:1.031628607691953px"/><path d="M22.354,15.452v-1.9H21.67v1.218l-2.587-2.587-4.376,4.376h1.1v2.968h6.545V16.555h1.1Z"/><path d="M8.542,22.453H2.53V20.931H7.058V19.485H2.53V17.963H7.058V16.479H2.53V14.995H7.058V13.549H2.53V8.983" style="fill:none;stroke:#000;stroke-linecap:round;stroke-linejoin:round;stroke-width:1.031628607691953px"/></svg>
